app/public/dtpr-icons/energy.svg

<svg width="36" height="36" viewBox="0 0 36 36" fill="none" xmlns="http://www.w3.org/2000/svg">
<path d="M31.8564 8.8453L19 1.42265C18.3812 1.06538 17.6188 1.06538 17 1.42265L4.14359 8.8453C3.52479 9.20257 3.14359 9.86282 3.14359 10.5774V25.4226C3.14359 26.1372 3.52479 26.7974 4.14359 27.1547L17 34.5774C17.6188 34.9346 18.3812 34.9346 19 34.5774L31.8564 27.1547C32.4752 26.7974 32.8564 26.1372 32.8564 25.4226V10.5774C32.8564 9.86282 32.4752 9.20256 31.8564 8.8453Z" fill="black" stroke="black" stroke-width="2"/>
<mask id="mask0" mask-type="alpha" maskUnits="userSpaceOnUse" x="12" y="7" width="12" height="22">
<path fill-rule="evenodd" clip-rule="evenodd" d="M12 7H24V29H12V7Z" fill="white"/>
</mask>
<g mask="url(#mask0)">
<path fill-rule="evenodd" clip-rule="evenodd" d="M23.5337 16H18.9997V7.46699C18.9997 6.98399 18.3567 6.81899 18.1257 7.24299L12.0577 19.312C11.8877 19.621 12.1127 20 12.4667 20H16.9997V28.533C16.9997 29.016 17.6437 29.18 17.8747 28.757L23.9427 16.688C24.1117 16.378 23.8877 16 23.5337 16Z" fill="white"/>
</g>
</svg>

<svg xmlns="http://www.w3.org/2000/svg" width="36" height="36" fill="none"><path fill="#000" stroke="#000" stroke-width="2" d="M31.856 8.845 19 1.423a2 2 0 0 0-2 0L4.144 8.845a2 2 0 0 0-1 1.732v14.846a2 2 0 0 0 1 1.732L17 34.577a2 2 0 0 0 2 0l12.856-7.422a2 2 0 0 0 1-1.732V10.577a2 2 0 0 0-1-1.732Z"/><mask id="a" width="12" height="22" x="12" y="7" mask-type="alpha" maskUnits="userSpaceOnUse"><path fill="#fff" fill-rule="evenodd" d="M12 7h12v22H12z" clip-rule="evenodd"/></mask><g mask="url(#a)"><path fill="#fff" fill-rule="evenodd" d="M23.534 16H19V7.467c0-.483-.643-.648-.874-.224l-6.068 12.069a.465.465 0 0 0 .409.688H17v8.533c0 .483.644.647.875.224l6.068-12.069a.465.465 0 0 0-.41-.688" clip-rule="evenodd"/></g></svg>
